X: 40103
T: Tickle Her Leg With The Barley Straw
R: jig
M: 6/8
K: Dminor
F2B BAF|A2A AFE|F2B BAF|Ade fdB|
F2B BAF|A3 ABc|def e2c|1 B3 AFE:|2 B3 Bde||
f2b baf|a3 afe|f2b baf|a3 afe|
f2b baf|e3 eBc|def e2c|1 B3 Bde:|2 B3 AFE||
A2d dcA|c2c cAG|A2d dcA|cfg afd|
A2d dcA|c3 cde|fga g2e|1 d3 cAG:|2 d3 dfg||
a2d' d'c'a|c'3 c'ag|a2d' d'c'a|c'3 c'ag|
a2d' d'c'a|g3 gde|fga g2e|1 d3 dfg:|2 d3 cAG||

